packages/kaspersky-hexa-ui-icons/src/iconsSVGs/24/AlignmentCenter.svg

<svg width="24" height="24" viewBox="0 0 24 24" fill="none" xmlns="http://www.w3.org/2000/svg">
<path d="M18 18C18.5523 18 19 18.4477 19 19C19 19.5523 18.5523 20 18 20H6C5.44772 20 5 19.5523 5 19C5 18.4477 5.44772 18 6 18H18Z" fill="black"/>
<path d="M16 11C16.5523 11 17 11.4477 17 12C17 12.5523 16.5523 13 16 13H8C7.44772 13 7 12.5523 7 12C7 11.4477 7.44772 11 8 11H16Z" fill="black"/>
<path d="M20 4C20.5523 4 21 4.44772 21 5C21 5.55228 20.5523 6 20 6H4C3.44772 6 3 5.55228 3 5C3 4.44772 3.44772 4 4 4H20Z" fill="black"/>
</svg>

<svg xmlns="http://www.w3.org/2000/svg" width="24" height="24" fill="none" viewBox="0 0 24 24"><path fill="#000" fill-rule="evenodd" d="M21 5c0-.5523-.4477-1-1-1H4c-.5523 0-1 .4477-1 1s.4477 1 1 1h16c.5523 0 1-.4477 1-1m-5 6c.5523 0 1 .4477 1 1s-.4477 1-1 1H8c-.5523 0-1-.4477-1-1s.4477-1 1-1zm2 7c.5523 0 1 .4477 1 1s-.4477 1-1 1H6c-.5523 0-1-.4477-1-1s.4477-1 1-1z"/></svg>
